X:154
T:Our Shiba Zoe
R:hornpipe
C:2012 L.E. McCullough 
M:4/4
L:1/8
K:D
A||: DFAd ~f3f | gfed B3B | BABc defd | gfed ~e3A | 
DFAd ~f3f | gfed B3B | BABc dBAF |1 GFEA F~D3 :||2 GFEA F~D3 ||:
~F3A DFAd | e~A3 Aceg | ~f3d gdfd | edcd ecAG | 
~F3A DFAd | e~A3 agfe | fAdf gfed | (3cBA GE  F~D3 :||


